X: 13829
T: Four Provinces Fling, The
R: strathspey
M: 4/4
K: Dmajor
B|A~F3 ~A3B|AGFE ~D3B|ADFA (3Bcd AF|EGFE ~D3B|
A~F3 ~A3B|AGFE ~D3B|ADFA (3Bcd AF|Dfag|
f2df eAce|dcdA Bcde|ffdf eAce|dBAG FAde|
f2df eAce|dcdA Bcdg|fdec d2cA|(3Bcd AFegfe|
dcdf aafa|bfaf egfe|dcdf aafa|gbaf egfe|
dcdf aafa|bfaf egfe|dcdf aafa|gbaf egag||
f2df eAce|dcdA Bcde|ffdf eAce|dBAG FAde|
f2df eAce|dcdA Bcdg|fdec d2cA|(3Bcd AFde|

